console-client/ionicons/svg/today.svg

<svg xmlns="http://www.w3.org/2000/svg" class="ionicon" viewBox="0 0 512 512"><title>Today</title><path d="M416 64h-16V48.45c0-8.61-6.62-16-15.23-16.43A16 16 0 00368 48v16H144V48.45c0-8.61-6.62-16-15.23-16.43A16 16 0 00112 48v16H96a64 64 0 00-64 64v12a4 4 0 004 4h440a4 4 0 004-4v-12a64 64 0 00-64-64zM477 176H35a3 3 0 00-3 3v237a64 64 0 0064 64h320a64 64 0 0064-64V179a3 3 0 00-3-3zM224 307.43A28.57 28.57 0 01195.43 336h-70.86A28.57 28.57 0 0196 307.43v-70.86A28.57 28.57 0 01124.57 208h70.86A28.57 28.57 0 01224 236.57z"/></svg>

<svg xmlns="http://www.w3.org/2000/svg" viewBox="0 0 512 512"><path d="M416,64H400V48.45c0-8.61-6.62-16-15.23-16.43A16,16,0,0,0,368,48V64H144V48.45c0-8.61-6.62-16-15.23-16.43A16,16,0,0,0,112,48V64H96a64,64,0,0,0-64,64v12a4,4,0,0,0,4,4H476a4,4,0,0,0,4-4V128A64,64,0,0,0,416,64Z"/><path d="M477,176H35a3,3,0,0,0-3,3V416a64,64,0,0,0,64,64H416a64,64,0,0,0,64-64V179A3,3,0,0,0,477,176ZM224,307.43A28.57,28.57,0,0,1,195.43,336H124.57A28.57,28.57,0,0,1,96,307.43V236.57A28.57,28.57,0,0,1,124.57,208h70.86A28.57,28.57,0,0,1,224,236.57Z"/></svg>
